!!!COM:	Pierre de la Rue
**kern	**kern
*part2	*part1
*staff2	*staff1
*clefF4	*clefGv2
*k[]	*k[]
*M2/1	*M2/1
=1-	=1-
0r	1G
.	2G
.	[2B
=2	=2
1G	2B]
.	4A
.	4G
2E	4B
.	4c
[2F	4d
.	4e
=3	=3
4F]	2d
4E	.
4D	1c
4C	.
1D	.
.	2B
=4	=4
1C	2c
.	4B
.	4A
2r	1G
[2C	.
=5	=5
2C]	1A
4BB	.
4AA	.
4C	2F
4D	.
4E	[2G
4F	.
=6	=6
2E	4G]
.	4F
1D	4E
.	4D
.	1E
2C	.
=7	=7
0D	1D
.	2r
.	[2F
=8	=8
2r	2F]
2D	4E
.	4D
2BB	4F
.	4G
[2C	4A
.	4B
=9	=9
4C]	2A
4BB	.
4AA	2G
4GG	.
1AA	2r
.	2c
=10	=10
1GG	2B
.	2G
2C	2A
2D	[2B
=11	=11
1E	2B]
.	2G
2C	2A
2D	2B
=12	=12
2E	2E
2.AA	2r
.	2.E
4BB	.
4C	.
4D	4F
=13	=13
1E	4G
.	4A
.	4B
.	4G
2C	2c
2D	4B
.	4A
=14	=14
4D	4B
4C	4A
4BB	1A
4AA	.
1BB	.
.	2G
=15	=15
2AA	2.A
2A	.
.	4B
2F	4c
.	4d
[2G	4e
.	4f
=16	=16
4G]	2e
4F	.
4E	1d
4D	.
1E	.
.	2c
=17	=17
2.D	1d
4E	.
4F	2B
4G	.
4A	[2c
4B	.
=18	=18
2A	4c]
.	4B
1G	4A
.	4G
.	1A
2F	.
=19	=19
0G	0G
==	==
*-	*-
